X: 17
T:Fleur d'épine
C:Paroles et musique traditionnelle
Z:Transcrit et/ou corrigé par Michel BELLON - 2006-04-28
Z:Pour toute observation mailto:galouvielle@free.fr
M:6/8
L:1/8
K:F
z3 C2C |: "F"F2G A2G | F3 F2G | A2A "Bb"B2G | "F"A3 "C"c3 |1 "F"A3C2C :|2 "F"A3 F2F |
"Bb"B6 | G3 B2B | "F"A6 | F3A2A | "C"G2A B2G | "F"F2G A2F | "C"E2F G2E | "F"F3 FFF |
"C"G6 | C3 GGG | "F"A6 | F3 AAA | "Bb"B2G G2G | "F"A2F F2F | "C"G2E D2E | "F"F3z3 |]

%%footer $D   Galouvielle-MBe 2006 \n-- (--)
